svg/regular/bx-select-multiple.svg

<svg xmlns="http://www.w3.org/2000/svg" width="24" height="24"><path d="M20 2H8c-1.103 0-2 .897-2 2v12c0 1.103.897 2 2 2h12c1.103 0 2-.897 2-2V4c0-1.103-.897-2-2-2zM8 16V4h12l.002 12H8z"/><path d="M4 8H2v12c0 1.103.897 2 2 2h12v-2H4V8zm8.933 3.519-1.726-1.726-1.414 1.414 3.274 3.274 5.702-6.84-1.538-1.282z"/></svg>

<svg xmlns="http://www.w3.org/2000/svg" width="24" height="24" viewBox="0 0 24 24"><path d="M20,2H8C6.897,2,6,2.897,6,4v12c0,1.103,0.897,2,2,2h12c1.103,0,2-0.897,2-2V4C22,2.897,21.103,2,20,2z M8,16V4h12 l0.002,12H8z"/><path d="M4 8H2v12c0 1.103.897 2 2 2h12v-2H4V8zM12.933 11.519L11.207 9.793 9.793 11.207 13.067 14.481 18.769 7.641 17.231 6.359z"/></svg>
